X:0233
T:A Trip to Clumber.
M:2/4
L:1/8
Q:1/4=132
I: :: :: ::
Z:Jack Campin * www.campin.me.uk * 2009
K:D
A2 Ad|d2 cd|Bg/e/ dc      |d/c/d/e/ dd |\
A2 Ad|d2 cd|Bg/e/ dc      |d2       D2::
A2 FA|AG EC|DA,   B,C     |D/C/D/E/ DD |\
A2 FA|AG EC|DA,   B,C     |D2       D2:|
f2 fd|g2 g2|ec    cA      |d/c/d/e/ dd |\
f2 fd|g2 g2|ed    c/d/e/c/|d2       d2:|
<end>
<start>
